X:1
T:Variations on a Theme of Chopin, op. 22
T:Variations on a Theme of Chopin, op. 22
T:Var. 19
T:Sergei Rachmaninoff
C:Sergei Rachmaninoff
%%score { ( 1 2 ) | ( 3 4 ) }
L:1/8
Q:1/4=115
M:4/4
K:A
V:1 treble nm="Piano" snm="Pno."
V:2 treble 
V:3 bass 
V:4 bass 
V:1
!ff!"_sempre marcato""^Allegro Vivace." !>![aa']4 !>![Aa]4 | !>![A,A]8 | %2
 [FAcf]3 [DFAd] [EAce]3 [CAc] | [DAd][CAc][B,FB][CGc] [A,EA][G,EG][F,CEF][G,^DG] | %4
 !>![E,E][Begb] [ceac']2 !>![ee']4 | !>![Ee]8 | [EGc]3 [EFA] [EGB]3 [G,EG] | %7
 [A,EA][G,EG][F,CEF][G,^DG][K:bass]"_dim." [E,B,E].[E,^A,].[E,=A,].[^D,G,B,] | %8
!p! .[B,,E,G,][K:treble][F,=DF] !tenuto![B,DG]2 .[E,DE] !tenuto![A,DF]2 .[G,DG] | %9
 (!tenuto![A,DA][DEB]).[G,DG].[CDA] .[B,DEB] (!tenuto![CEc]2 [DF^Ad]) | %10
 .[B,FB].[CF^Ac] !tenuto![DFBd]2"_cresc." .[B,DG] (!tenuto![CFA]2 [B,FB]) | %11
 (!tenuto![C^Ac][DBd]).[FB].[EFBc] .[DFBd] (!tenuto![^DF^d]2 [EGe]) | %12
 .[CEGc].[^DFc^d] !tenuto![Ece]2 [CE^A][^B,G^B][CEGc][DGd] | %13
 .[EGce].[Fc^df] !>![Gceg]2 [CGc][Ece][Fcdf][Gceg] |!f! !>![cc']4 !>![cc']4 | %15
 !>![cc']3 !>![Aa]/!>![Bb]/ !>![cc']4 |!ff! !>![aa']4 !>![Aa]4 | !>![A,A]7 !>![aa'] | %18
 !>![=f=f']3 (d/e/ !>![=Ff]3) (=C/(E/) | !>![=F,=F]7) !>![=f=f'] | !>![cc']8 | !>![ff']8 | %22
 !>![bb']4!8va(! !>![=e'e'']4!8va)! |!ff!"_marcato" !>![aa']8 | z8 | %25
 [CEAc][EGce][FAcf][DFBd] [EGBe][CEAc][DFAd][=C=FA=c] | %26
 [CEAc][CFc][DFBd][G,CG] [A,CA][^A,C^A][B,FB][G,DG] | %27
 [A,CA][K:bass]!f! !tenuto![F,DF]2 !tenuto![E,CE]- !tenuto![E,CE] !tenuto![E,CE]2 (!tenuto![D,B,D] | %28
"_dim." !tenuto![C,A,C]) !tenuto![=F,D]2 !tenuto![E,C]- !tenuto![E,C] !tenuto![^D,C]2 (!tenuto![=D,B,] | %29
 [C,A,]) z z (!tenuto![D,B,] [C,A,]) z z (!tenuto![D,B,] | %30
!p! [C,A,]) z z ([G,,B,,] A,,) z z ([G,,B,,] | %31
 A,,) z[K:treble]!ff!"_maestoso" !>![=GAea]4 !>![FAdf]2- | %32
 !>![FAdf]2 !>![DEBe]2- !>![DEBe]>!>![Dd] !>![CEBc]2 | z2 !>![CE^Ac]2 !>![D=F=Ad]4 | %34
 !>![CEGc]7 !>![A,CA] |] %35
V:2
 z [eac'e'] [fad'f']2 z [dabd'] [eac'e']2 | z [ceac'][dfad'][ceac'] [Bdfb][cegc'][Acea][EAce] | %2
 z ([Aa]/g/ !>![Aa]2) z ([A,A]/G/ !>![A,A]2) | x8 | z4 z [Aefa] [Begb]2 | %5
 z [GBeg][Acea][GBeg] [Fcef][GB^dg][GBe][EGB] | z (c/^d/ !>![Ee]2) z (B,/^D/ !>![E,E]2) | %7
 x4[K:bass] x4 | x[K:treble] x7 | x8 | x8 | x8 | x8 | x8 | z2 [Acfa]2 z3/2 [Acfa]/ [Bdfb]2 | %15
 z !>![Acf]/!>![Bcfg]/ !>![Acfa]2 z3/2 [Acfa]/ [Gc^eg]2 | %16
 z [eac'e'] [fad'f']2 z [dabd'] [eac'e']2 | z [ceac'][dfad'][ceac'] [Bdfb][cegc'][Acea] z | %18
 z [=c=fa=c'] [df_bd']2 z [_Bfb] [cfac']2 | z [A=c=fa][_Bdf_b][Acfa] [=Gdf=g][Acea][=FAcf] z | %20
 z !tenuto![GBc^eg]2 !tenuto![Acfa]2 !tenuto![^Ac=e^^f^a]2 !tenuto![Bc^egb] | %21
 z !tenuto![^B^dfa^b]2 !tenuto![cef^ac']- [cefac'][=d^egbd'][^df=ab^d'][=ef^ac'e'] | %22
 z !>![^egbd'^e']2 [fab^d'f']!8va(! z!8va)! (!>![^^f^ac'=e'^^f']2 [gb=d'e'g']) | %23
 z [eac'e'][fac'f'][dfbd'] [egbe'][ceac'][dfad'][=c=fa=c'] | %24
 [ceac'][^Acf^a][Bdfb][Gcg] [=Ac=a][FAdf][DFBd][EGBe] | x8 | x8 | x[K:bass] x7 | x8 | x8 | x8 | %31
 x2[K:treble] x6 | x8 | x8 | x4 !>!D4 |] %35
V:3
 !>![A,,,A,,]4 !>![A,,,A,,]4 | !>![A,,,A,,]4 x4 | [F,,C,F,]3 [F,,A,,F,] [E,,A,,C,E,]3 [E,,A,,E,] | %3
 [F,,A,,F,][E,,A,,E,][D,,F,,D,][E,,G,,E,] [C,,A,,C,][B,,,B,,][A,,,A,,][B,,,B,,] | %4
!ped! !>![E,,,E,,][B,,E,G,B,] [C,E,A,C]2!ped-up!!ped! !>![E,,,E,,]4!ped-up! | !>![E,,,E,,]8 | %6
 [C,G,C]3 [C,E,C] [B,,E,G,B,]3 [E,,B,,E,] | %7
 [F,,B,,F,][E,,B,,E,][A,,,A,,][B,,,B,,] [G,,,G,,].=G,,.F,,.^G,, | %8
 (E,,/B,,/)(A,/B,,/) (G,/B,,/E,,/B,,/) (G,/B,,/)(F,/B,,/ E,,/B,,/)E,/E,/ | C B,2 A, (G,=G,F,E, | %10
 D,C, B,,2) F, E,2 D, | =G,,F,,DC B,A,G,^B,, | C,A,,G,,^^F, G,^D,C,^B, | CA,G,^D E z z2 | %14
 !>![C,,C,]4 !>![C,,C,]4 | !>![C,,C,]3 !>![A,,,A,,]/!>![B,,,B,,]/ !>![C,,C,]4 | %16
 !>![A,,,A,,]4 !>![A,,,A,,]4 | !>![A,,,A,,]7 !>![A,,,A,,] | %18
 !>![=F,,,=F,,]3 (D,,/E,,/ !>![F,,,F,,]3) (=C,,/(E,,/) | !>![=F,,,=F,,]7) !>![F,,,F,,] | %20
 !>![C,,,C,,]8 | !>![F,,,F,,]8[K:treble] | !>![B,,,B,,]4[K:treble][K:bass] !>![E,,E,]4[K:treble] | %23
[K:bass] !>![A,,,A,,]8[K:treble][K:bass] | %24
 [A,,C,E,A,][E,F,E][D,F,D][^E,C^E] [F,CF][D,F,A,D][B,,D,F,B,][E,,G,,B,,=E,] | %25
 [A,,C,E,A,][C,E,G,C][F,,A,,C,F,][B,,D,F,B,] [E,,G,,B,,E,][A,,C,E,A,][D,,F,,A,,D,][=F,,A,,=C,=F,] | %26
 [A,,C,E,A,][^A,,F,^A,][B,,F,B,][^E,,C,^E,] [F,,C,F,][=E,,=E,][D,,D,][E,,E,] | %27
 [A,,,A,,](!tenuto![A,,,G,,]A,,)(!tenuto![A,,,=G,,] A,,)(!tenuto![A,,,F,,]A,,)(!tenuto![A,,,=F,,] | %28
 A,,)([A,,,G,,]A,,)([A,,,=G,,] A,,)([A,,,F,,]A,,)([A,,,=F,,] | %29
 A,,).E,,.A,,[A,,,=F,,] A,,.E,,.A,,[A,,,F,,] | A,,!8vb(!E,,,A,,,=F,,, .A,,,.E,,,.A,,,.F,,, | %31
 A,,,!8vb)! z!ped!{/[C,,C,]} !>![=G,A,E]4!ped-up!!ped!{/[D,,D,]} !>![F,A,D]2- | %32
 !>![F,A,D]2!ped-up!!ped!{/[G,,,G,,]} !>![E,B,]2- !>![E,B,]>!ped-up!!>![=G,,,=G,,] !>![C,E,B,]2 | %33
 z2 !>![F,,C,E,^A,]2!ped!{/[B,,,,B,,,]} !>![D,=F,=A,]4!ped-up! | %34
!ped!{/[E,,,E,,]} !>![E,G,]7 !>![A,,,E,,] |] %35
V:4
 z [E,A,CE] [F,A,DF]2 z [D,A,B,D] [E,A,CE]2 | %1
 z [E,A,CE][F,A,DF][E,A,CE] [D,F,B,D][E,G,CE][C,E,C][G,,C,G,] | %2
 z (([A,,,A,,]/G,,/ !>![A,,,A,,]2)) z ([A,,,A,,]/G,,/ !>![A,,,A,,]2) | x8 | %4
 z4 z [A,,E,F,A,] [B,,E,G,B,]2 | %5
 z [B,,E,G,B,][C,E,A,C][B,,E,G,B,] [A,,C,F,A,][B,,^D,G,B,][E,G,E][D,G,^D] | %6
 z (C,,/^D,,/ !>![E,,,E,,]2) z (B,,,/D,,/ !>![E,,,E,,]2) | x8 | z A, G,2 G,F, z E, | %9
 (C/E,/)(B,/E,/ B,,/E,/)(A,/B,,/) (G,/B,,/=G,/B,,/ F,/^A,,/E,/E,,/ | %10
 D,/E,,/C,/E,,/ B,,/E,,/B,,/D,/) F,/E,,/E,/E,,/ C,/E,,/D,/E,,/ | %11
 =G,,/E,,/F,,/E,,/ D/E,/C/E,/ B,/D,/A,/C,/ G,/^B,,/B,,/E,,/ | %12
 C,/E,,/A,,/E,,/ G,,/E,,/^^F,/E,,/ G,/E,,/^D,/E,,/ C,/E,,/^B,/E,,/ | %13
 C/E,/A,/E,/ G,/E,/^D/G,/ E/G,/(G,/B,,/ F,/A,,/E,/G,,/) | z2 [F,A,CF]2 z3/2 [F,A,CF]/ [F,B,DF]2 | %15
 z !>![F,A,CF]/!>![G,A,CF]/ !>![F,A,CF]2 z3/2 [F,A,CF]/ [^E,G,C^E]2 | %16
 z [E,A,CE] [F,A,DF]2 z [D,A,B,D] [E,A,CE]2 | %17
 z [E,A,CE][F,A,DF][E,A,CE] [D,F,B,D][E,G,CE][A,CE] z | %18
 z [=C,=F,A,=C] [D,F,_B,D]2 z [D,F,B,] [C,F,A,C]2 | %19
 z [=C,=F,A,=C][D,F,_B,D][C,F,A,C] [_B,,D,=G,B,][C,E,A,C][F,A,C] z | %20
 z !tenuto![^E,G,B,C^E]2 !tenuto![F,A,CF]2 !tenuto![^^F,^A,C=E^^F]2 !tenuto![G,B,C^EG] | %21
 z[K:treble] !tenuto![A,^B,^DFA]2 !tenuto![^A,CEF^A]- [A,CEFA][=B,=D^EGB][^B,^DF=A^B][C=EF^Ac] | %22
 z[K:treble] !>![G,B,D^EG]2 [A,B,^DFA][K:bass] z[K:treble] (!>![^A,C=E^^F^A]2 [B,=DEGB]) | %23
[K:bass] z[K:treble] [CEAc][F,A,CF][B,DFB] [E,G,B,E][A,CEA][K:bass][D,F,A,D][=F,A,=C=F] | x8 | x8 | %26
 x8 | x8 | x8 | x8 | x!8vb(! x7 | x!8vb)! x7 | x8 | x8 | x4 !>!D,4 |] %35

